X: 3381
T: Bennachie Sunrise
R: reel
M: 4/4
K: Amajor
E2 cA B3 c|E2 cA BAFA|E2 cA Bcdf|eccA BAFA|
E2 cA B3 c|E2 cA BAFA|E2 cA Bcdf|eccA BAFE||
Aaae f4|e>fec BAFE|Aaae f3 e/f/|a>fec f3 e|
Aaae f4|e>fec BAFE|Aaae f3 e/f/|a>fec f4||

